static/images/plans/wpcom/plan-premium-circle.svg

<svg height="72" viewBox="0 0 72 72" width="72" xmlns="http://www.w3.org/2000/svg" xmlns:xlink="http://www.w3.org/1999/xlink"><defs><circle id="a" cx="36" cy="36" r="36"/><path id="b" d="m14 50v2.9587014c0 .4778468-.0274928.6489396-.0876221.834241-.0601294.1853014-.1528952.3458037-.2834412.4904062-.130546.1446026-.2650722.253833-.6791224.4923703l-4.70102619 2.708296c-.71782494.4135443-1.63498089.166876-2.04852515-.5509489-.13120295-.2277405-.20026296-.4859575-.20026296-.7487881v-6.1842779h-2c0-10.6666667-1.33333333-21-4-31v-19h20v19c-2.6666667 10-4 20.3333333-4 31z"/><mask id="c" fill="#fff"><use fill="#fff" fill-rule="evenodd" xlink:href="#a"/></mask><mask id="d" fill="#fff"><path d="m0 0h72v72h-72z" fill="#fff" fill-rule="evenodd"/></mask><mask id="e" fill="#fff"><use fill="#fff" fill-rule="evenodd" xlink:href="#b"/></mask></defs><g fill="none" fill-rule="evenodd"><use fill="#e0bd56" fill-rule="nonzero" xlink:href="#a"/><path d="m-4 54h32l-3 2h-29z" fill="#ba9830" mask="url(#c)"/><g mask="url(#c)"><g fill="none" fill-rule="evenodd" mask="url(#d)" transform="matrix(.8660254 .5 -.5 .8660254 22.823085 -13.176915)"><g fill-rule="evenodd" transform="translate(26 -2)"><use fill="#826b32" xlink:href="#b"/><path d="m-4 22h28v28h-28z" fill="#fff" mask="url(#e)"/></g></g></g></g></svg>

<?xml version="1.0" encoding="UTF-8"?><svg width="72px" height="72px" viewBox="0 0 72 72" version="1.1" xmlns="http://www.w3.org/2000/svg" xmlns:xlink="http://www.w3.org/1999/xlink"><defs><circle id="path-1" cx="36" cy="36" r="36"></circle><rect id="path-3" x="0" y="0" width="72" height="72"></rect><path d="M14,50 L14,52.9587014 C14,53.4365482 13.9725072,53.607641 13.9123779,53.7929424 C13.8522485,53.9782438 13.7594827,54.1387461 13.6289367,54.2833486 C13.4983907,54.4279512 13.3638645,54.5371816 12.9498143,54.7757189 L8.24878811,57.4840149 C7.53096317,57.8975592 6.61380722,57.6508909 6.20026296,56.933066 C6.06906001,56.7053255 6,56.4471085 6,56.1842779 L6,50 L4,50 C4,39.3333333 2.66666667,29 0,19 L0,0 L20,0 L20,19 C17.3333333,29 16,39.3333333 16,50 L14,50 Z" id="path-5"></path></defs><g id="Plan/Premium" stroke="none" stroke-width="1" fill="none" fill-rule="evenodd"><g id="plan"><mask id="mask-2" fill="white"><use xlink:href="#path-1"></use></mask><use id="bg" fill="#E0BD56" fill-rule="nonzero" xlink:href="#path-1"></use><polygon id="line" fill="#BA9830" mask="url(#mask-2)" points="-4 54 28 54 25 56 -4 56"></polygon><g id="icon" mask="url(#mask-2)"><g transform="translate(36.000000, 36.000000) rotate(30.000000) translate(-36.000000, -36.000000) "><mask id="mask-4" fill="white"><use xlink:href="#path-3"></use></mask><g id="bounds" stroke="none" fill="none"></g><g id="pen" stroke="none" stroke-width="1" fill="none" fill-rule="evenodd" mask="url(#mask-4)"><g transform="translate(26.000000, -2.000000)"><mask id="mask-6" fill="white"><use xlink:href="#path-5"></use></mask><use id="shape" stroke="none" fill="#826B32" fill-rule="evenodd" xlink:href="#path-5"></use><rect id="alt" stroke="none" fill="#FFFFFF" fill-rule="evenodd" mask="url(#mask-6)" x="-4" y="22" width="28" height="28"></rect></g></g></g></g></g></g></svg>
